public/icon/svg/Wechat.svg

<?xml version="1.0" encoding="UTF-8"?>
<svg width="1025px" height="1024px" viewBox="0 0 1025 1024" version="1.1" xmlns="http://www.w3.org/2000/svg" xmlns:xlink="http://www.w3.org/1999/xlink">
    <title>Wechat</title>
    <defs>
        <linearGradient x1="50%" y1="0%" x2="50%" y2="100%" id="linearGradient-1">
            <stop stop-color="#67DF7B" offset="0%"></stop>
            <stop stop-color="#64D878" offset="8.62379808%"></stop>
            <stop stop-color="#62D576" offset="92.1355988%"></stop>
            <stop stop-color="#5ECB71" offset="100%"></stop>
        </linearGradient>
        <path d="M95.0571257,402.932617 C99.9373267,406.36273 102.837225,411.958337 102.826218,417.923758 C102.766981,419.911322 102.428529,421.880676 101.820806,423.77396 C97.2507517,441.050336 89.7558629,468.747383 89.4816597,470.027114 C88.6525656,472.167277 88.1294731,474.413702 87.9278413,476.7 C87.9278413,481.748402 92.0200071,485.84094 97.0679495,485.84094 C98.9468705,485.756131 100.772416,485.189531 102.369212,484.19557 L162.602526,449.368591 C167.026124,446.713091 172.068336,445.263323 177.226699,445.163758 C179.979785,445.186713 182.716767,445.586533 185.361395,446.352081 C214.568676,454.759808 244.815557,459.00645 275.208659,458.966577 C427.208659,458.966577 550.417318,356.313826 550.417318,229.620403 C550.417318,102.92698 427.30006,0 275.30006,0 C123.30006,0 0,102.652752 0,229.254765 C0,298.360268 37.1088394,360.610067 95.0571257,402.932617 Z" id="path-2"></path>
        <path d="M0,190.954228 C0,296.349262 102.643416,381.817047 229.233915,381.817047 C254.551276,381.867034 279.750091,378.359187 304.091401,371.396376 C306.284271,370.730475 308.563353,370.391662 310.855081,370.390872 C315.140043,370.47342 319.329644,371.670558 323.011425,373.86443 L373.190619,402.841208 C374.487614,403.729221 376.007516,404.235901 377.577871,404.303758 C381.797529,404.254396 385.206204,400.845411 385.255562,396.625369 C385.017868,394.719542 384.557726,392.848127 383.884546,391.049396 L373.556224,352.56604 C373.065263,350.995523 372.788561,349.365906 372.733614,347.721342 C372.738588,342.741617 375.157637,338.073452 379.223091,335.198255 C427.482862,300.279866 458.376428,248.450738 458.376428,190.954228 C458.376428,85.4677852 355.733013,0 229.142514,0 C102.552014,0 0,85.4677852 0,190.954228" id="path-4"></path>
    </defs>
    <g id="ICON-新版方图标" stroke="none" stroke-width="1" fill="none" fill-rule="evenodd">
        <g id="Wechat" transform="translate(0.6332, 0)">
            <rect id="蒙版路径" stroke="#00E16F" fill="url(#linearGradient-1)" x="0.5" y="0.5" width="1023" height="1023" rx="105"></rect>
            <g id="Clipped" transform="translate(132, 206)">
                <mask id="mask-3" fill="white">
                    <use xlink:href="#path-2"></use>
                </mask>
                <g id="路径"></g>
                <rect id="矩形" fill="#FFFFFF" fill-rule="nonzero" mask="url(#mask-3)" x="0" y="0" width="550.508719" height="485.475302"></rect>
            </g>
            <g id="Clipped" transform="translate(433.6236, 414.5962)">
                <mask id="mask-5" fill="white">
                    <use xlink:href="#path-4"></use>
                </mask>
                <g id="路径"></g>
                <rect id="矩形" fill="#FFFFFF" fill-rule="nonzero" mask="url(#mask-5)" x="-0.0914010824" y="6.49502823e-14" width="458.467829" height="404.303758"></rect>
            </g>
            <path d="M352.002405,361.395973 C352.002405,381.589579 335.633742,397.959732 315.441972,397.959732 C295.250203,397.959732 278.881539,381.589579 278.881539,361.395973 C278.881539,341.202367 295.250203,324.832215 315.441972,324.832215 C335.633742,324.832215 352.002405,341.202367 352.002405,361.395973" id="路径" fill="#64D878" fill-rule="nonzero"></path>
            <path d="M536.084185,361.395973 C536.084185,381.589579 519.715522,397.959732 499.523752,397.959732 C479.331983,397.959732 462.963319,381.589579 462.963319,361.395973 C462.963319,341.202367 479.331983,324.832215 499.523752,324.832215 C519.715522,324.832215 536.084185,341.202367 536.084185,361.395973" id="路径" fill="#64D878" fill-rule="nonzero"></path>
            <path d="M711.025857,547.231275 C710.91471,559.686411 718.336176,570.975398 729.814026,575.810452 C741.291877,580.645507 754.553084,578.069114 763.386072,569.288061 C772.219061,560.507008 774.874581,547.26026 770.108782,535.752619 C765.342983,524.244978 754.099665,516.755372 741.645219,516.791813 C733.508599,516.791813 725.70656,520.030708 719.961681,525.79326 C714.216802,531.555812 711.001568,539.368179 711.025857,547.505503" id="路径" fill="#64D878" fill-rule="nonzero"></path>
            <path d="M557.56344,547.231275 C557.452313,559.678102 564.863881,570.961268 576.330461,575.801667 C587.797041,580.642067 601.051009,578.082467 609.891171,569.320438 C618.731333,560.558408 621.409465,547.326724 616.672537,535.816152 C611.93561,524.305579 600.720394,516.791946 588.274203,516.791946 C571.313117,516.791946 557.56344,530.542874 557.56344,547.505503" id="路径" fill="#64D878" fill-rule="nonzero"></path>
        </g>
    </g>
</svg>

<svg xmlns="http://www.w3.org/2000/svg" xmlns:xlink="http://www.w3.org/1999/xlink" width="1025" height="1024"><defs><path id="b" d="M95.057 402.933a18.282 18.282 0 0 1 7.77 14.99 21.209 21.209 0 0 1-1.006 5.851c-4.57 17.276-12.065 44.973-12.34 46.253a24.408 24.408 0 0 0-1.553 6.673 9.14 9.14 0 0 0 9.14 9.14 10.967 10.967 0 0 0 5.301-1.644l60.234-34.827a29.52 29.52 0 0 1 14.624-4.205 30.16 30.16 0 0 1 8.134 1.188 323.258 323.258 0 0 0 89.848 12.615c152 0 275.208-102.653 275.208-229.347C550.417 102.927 427.3 0 275.3 0S0 102.653 0 229.255C0 298.36 37.109 360.61 95.057 402.933"/><path id="d" d="M0 190.954C0 296.35 102.643 381.817 229.234 381.817a270.25 270.25 0 0 0 74.857-10.42 23.305 23.305 0 0 1 6.764-1.006 24.677 24.677 0 0 1 12.156 3.473l50.18 28.977a8.408 8.408 0 0 0 4.387 1.463 7.77 7.77 0 0 0 7.678-7.679 24.591 24.591 0 0 0-1.371-5.576l-10.329-38.483c-.49-1.57-.767-3.2-.822-4.845a15.357 15.357 0 0 1 6.49-12.523c48.259-34.918 79.152-86.747 79.152-144.244C458.376 85.468 355.733 0 229.143 0 102.552 0 0 85.468 0 190.954"/><linearGradient id="a" x1="50%" x2="50%" y1="0%" y2="100%"><stop offset="0%" stop-color="#67DF7B"/><stop offset="8.624%" stop-color="#64D878"/><stop offset="92.136%" stop-color="#62D576"/><stop offset="100%" stop-color="#5ECB71"/></linearGradient></defs><g fill="none" fill-rule="evenodd" transform="translate(.633)"><rect width="1023" height="1023" x=".5" y=".5" fill="url(#a)" stroke="#00E16F" rx="105"/><g transform="translate(132 206)"><mask id="c" fill="#fff"><use xlink:href="#b"/></mask><path fill="#FFF" fill-rule="nonzero" d="M0 0h550.509v485.475H0z" mask="url(#c)"/></g><g transform="translate(433.624 414.596)"><mask id="e" fill="#fff"><use xlink:href="#d"/></mask><path fill="#FFF" fill-rule="nonzero" d="M-.091 0h458.468v404.304H-.091z" mask="url(#e)"/></g><path fill="#64D878" fill-rule="nonzero" d="M352.002 361.396c0 20.194-16.368 36.564-36.56 36.564-20.192 0-36.56-16.37-36.56-36.564s16.368-36.564 36.56-36.564c20.192 0 36.56 16.37 36.56 36.564M536.084 361.396c0 20.194-16.368 36.564-36.56 36.564-20.192 0-36.56-16.37-36.56-36.564s16.368-36.564 36.56-36.564c20.192 0 36.56 16.37 36.56 36.564M711.026 547.231a30.709 30.709 0 0 0 52.36 22.057 30.716 30.716 0 0 0-21.74-52.496 30.618 30.618 0 0 0-30.62 30.714M557.563 547.231a30.709 30.709 0 0 0 52.328 22.09 30.716 30.716 0 0 0-21.617-52.53c-16.96 0-30.71 13.752-30.71 30.715"/></g></svg>
